Numix-GalliumOS/16/devices/ac-adapter.svg

<?xml version="1.0" encoding="UTF-8" standalone="no"?>
<svg
   xmlns:dc="http://purl.org/dc/elements/1.1/"
   xmlns:cc="http://creativecommons.org/ns#"
   xmlns:rdf="http://www.w3.org/1999/02/22-rdf-syntax-ns#"
   xmlns:svg="http://www.w3.org/2000/svg"
   xmlns="http://www.w3.org/2000/svg"
   xmlns:sodipodi="http://sodipodi.sourceforge.net/DTD/sodipodi-0.dtd"
   xmlns:inkscape="http://www.inkscape.org/namespaces/inkscape"
   width="16"
   height="16"
   viewBox="0 0 16 16"
   id="svg2"
   version="1.1"
   inkscape:version="0.91 r"
   sodipodi:docname="ac-adapter.svg">
  <metadata
     id="metadata10">
    <rdf:RDF>
      <cc:Work
         rdf:about="">
        <dc:format>image/svg+xml</dc:format>
        <dc:type
           rdf:resource="http://purl.org/dc/dcmitype/StillImage" />
        <dc:title />
      </cc:Work>
    </rdf:RDF>
  </metadata>
  <defs
     id="defs8" />
  <sodipodi:namedview
     pagecolor="#ffffff"
     bordercolor="#666666"
     borderopacity="1"
     objecttolerance="10"
     gridtolerance="10"
     guidetolerance="10"
     inkscape:pageopacity="0"
     inkscape:pageshadow="2"
     inkscape:window-width="1920"
     inkscape:window-height="1056"
     id="namedview6"
     showgrid="true"
     inkscape:zoom="5.2149125"
     inkscape:cx="-52.568053"
     inkscape:cy="28.369065"
     inkscape:window-x="0"
     inkscape:window-y="24"
     inkscape:window-maximized="1"
     inkscape:current-layer="svg2"
     borderlayer="true">
    <inkscape:grid
       type="xygrid"
       id="grid3010" />
  </sodipodi:namedview>
  <path
     id="path4164"
     style="fill:#909ea9;fill-opacity:1"
     d="m 7.0001913,13 0,1.65568 c 0,0.191818 -0.151822,0.34464 -0.3423825,0.34464 l -1.3156175,0 c -0.1905605,0 -0.3423825,-0.152822 -0.3423825,-0.34464 L 4.9998087,13 Z m 3.9999997,0 0,1.65568 c 0,0.191818 -0.151822,0.34464 -0.342382,0.34464 l -1.3156179,0 c -0.1905605,0 -0.342382,-0.152822 -0.342382,-0.34464 L 8.999809,13 Z"
     inkscape:connector-curvature="0"
     sodipodi:nodetypes="csssscccsssscc" />
  <path
     id="path4164-3"
     style="fill:#20262b;fill-opacity:1"
     d="m 1.0462905,0.13594865 c 0.110771,0.004 0.2144156,0.036623 0.2995855,0.081373 0.113556,0.059666 0.1941882,0.1441157 0.2282547,0.2536931 0.150651,0.4845768 0.4519015,0.93217895 0.8464442,1.23974545 0.5728052,0.4778591 1.425187,0.6485323 2.3110798,0.8807464 0.4464158,0.1082222 0.9117563,0.2332813 1.3790398,0.4212261 0.469244,0.1866091 0.928706,0.4540978 1.326732,0.8328793 C 7.8800761,4.2745296 8.2004196,4.8254645 8.350445,5.4252115 8.39953,5.6226726 8.428526,5.797441 8.440796,5.999448 l 1.956934,0 c 0.887965,0 1.60254,0.719286 1.60254,1.613104 l 0,4.387448 -8.0005396,0 0,-4.387448 c 0,-0.893818 0.7145758,-1.613104 1.6025392,-1.613104 l 1.7115183,0 C 7.303663,5.8899603 7.292743,5.8038398 7.266233,5.6980513 7.169098,5.3066389 6.9563365,4.9385898 6.667063,4.6593453 6.4101385,4.4044379 6.0653296,4.2120479 5.692225,4.0562253 5.3171371,3.9017288 4.9015412,3.7961221 4.4653558,3.6876527 3.5861604,3.4865112 2.5964563,3.242081 1.7358083,2.5962932 1.1547475,2.1391111 0.72631452,1.5094388 0.50893802,0.80608145 c -0.049155,-0.1590502 -0.02332,-0.324297 0.057064,-0.4451596 0.080385,-0.1208627 0.21276995,-0.1948411 0.36615895,-0.2153999 0.03835,-0.00514 0.077203,-0.010907 0.11412953,-0.009573 z"
     inkscape:connector-curvature="0"
     sodipodi:nodetypes="cssccccccssccssccccccsscc" />
</svg>

<svg xmlns="http://www.w3.org/2000/svg" viewBox="0 0 16 16">
 <path d="m 7 13 0 1.656 c 0 0.192 -0.152 0.345 -0.342 0.345 l -1.316 0 c -0.191 0 -0.342 -0.153 -0.342 -0.345 l 0 -1.656 m 6 0 0 1.656 c 0 0.192 -0.152 0.345 -0.342 0.345 l -1.316 0 c -0.191 0 -0.342 -0.153 -0.342 -0.345 l 0 -1.656" style="fill:#909ea9;fill-opacity:1"/>
 <path d="m 1.046 0.136 c 0.111 0.004 0.214 0.037 0.3 0.081 0.114 0.06 0.194 0.144 0.228 0.254 0.151 0.485 0.452 0.932 0.846 1.24 0.573 0.478 1.425 0.649 2.311 0.881 0.446 0.108 0.912 0.233 1.379 0.421 0.469 0.187 0.929 0.454 1.327 0.833 c 0.443 0.429 0.763 0.98 0.913 1.58 0.049 0.197 0.078 0.372 0.09 0.574 l 1.957 0 c 0.888 0 1.603 0.719 1.603 1.613 l 0 4.387 -8 0 0 -4.387 c 0 -0.894 0.715 -1.613 1.603 -1.613 l 1.712 0 c -0.01 -0.109 -0.021 -0.196 -0.048 -0.301 -0.097 -0.391 -0.31 -0.759 -0.599 -1.039 -0.257 -0.255 -0.602 -0.447 -0.975 -0.603 -0.375 -0.154 -0.791 -0.26 -1.227 -0.369 -0.879 -0.201 -1.869 -0.446 -2.73 -1.091 -0.581 -0.457 -1.01 -1.087 -1.227 -1.79 c -0.049 -0.159 -0.023 -0.324 0.057 -0.445 0.08 -0.121 0.213 -0.195 0.366 -0.215 0.038 -0.005 0.077 -0.011 0.114 -0.01 z" style="fill:#20262b;fill-opacity:1"/>
</svg>
